X:111
T:Steirer, Privatarchiv Hofer, Sammelgut Krister eig .Amon Alois 6/4
R:Steirer
C:traditionell
B:"Hundert Steirer aus dem Ausseerland", F .Hofer, Steirisches Volksliedwerk, Graz, undated
S:Privatarchiv Hofer, Sammelgut Krister eig .Amon Alois 6/4, Grundlsee, 1857-1941
N:im buch in C, nr. 14, quelle einstimmig
A:Grundlsee
M:3/4
L:1/8
K:C
G2 |\
G2 ce G2 | G2 Bd f2 | G2 BdGB | edcBcA |\
G2 ce G2 | G2 Bd f2 | G2 BdGB | c4 :|
